storage/app/public/img/icones/users.svg

<?xml version="1.0" encoding="UTF-8" standalone="no"?>
<svg
   xmlns:dc="http://purl.org/dc/elements/1.1/"
   xmlns:cc="http://creativecommons.org/ns#"
   xmlns:rdf="http://www.w3.org/1999/02/22-rdf-syntax-ns#"
   xmlns:svg="http://www.w3.org/2000/svg"
   xmlns="http://www.w3.org/2000/svg"
   xmlns:sodipodi="http://sodipodi.sourceforge.net/DTD/sodipodi-0.dtd"
   xmlns:inkscape="http://www.inkscape.org/namespaces/inkscape"
   height="100px"
   width="100px"
   fill="#000000"
   version="1.1"
   x="0px"
   y="0px"
   viewBox="0 0 100 100"
   enable-background="new 0 0 100 100"
   xml:space="preserve"
   id="svg26"
   sodipodi:docname="users.svg"
   inkscape:version="0.92.4 (5da689c313, 2019-01-14)"><metadata
     id="metadata32"><rdf:RDF><cc:Work
         rdf:about=""><dc:format>image/svg+xml</dc:format><dc:type
           rdf:resource="http://purl.org/dc/dcmitype/StillImage" /><dc:title></dc:title></cc:Work></rdf:RDF></metadata><defs
     id="defs30" /><sodipodi:namedview
     pagecolor="#ffffff"
     bordercolor="#666666"
     borderopacity="1"
     objecttolerance="10"
     gridtolerance="10"
     guidetolerance="10"
     inkscape:pageopacity="0"
     inkscape:pageshadow="2"
     inkscape:window-width="779"
     inkscape:window-height="480"
     id="namedview28"
     showgrid="false"
     inkscape:zoom="2.36"
     inkscape:cx="50"
     inkscape:cy="8.4745763"
     inkscape:window-x="89"
     inkscape:window-y="352"
     inkscape:window-maximized="0"
     inkscape:current-layer="svg26" /><g
     display="none"
     id="g4"><rect
       x="-256.577"
       y="-133.027"
       display="inline"
       fill="#000000"
       stroke="#000000"
       stroke-width="4"
       stroke-miterlimit="10"
       width="1243.174"
       height="368.982"
       id="rect2" /></g><g
     id="g24"
     style="fill:#8f230a;fill-opacity:0.94117647"
     transform="matrix(0.91558241,0,0,0.91558241,4.2208795,4.2209217)"><path
       d="m 21.74,58.801 c 5.811,0 10.538,-4.728 10.538,-10.538 0,-5.81 -4.728,-10.538 -10.538,-10.538 -5.81,0 -10.538,4.728 -10.538,10.538 0,5.811 4.728,10.538 10.538,10.538 z"
       id="path6"
       style="fill:#8f230a;fill-opacity:0.94117647"
       inkscape:connector-curvature="0" /><path
       d="M 38.481,90.155 V 70.702 c 0,-4.8 -2.916,-8.93 -7.068,-10.718 -2.63,2.174 -6.002,3.483 -9.673,3.483 -3.671,0 -7.042,-1.308 -9.672,-3.483 C 7.916,61.773 5,65.902 5,70.702 v 19.453 h 26.353 z"
       id="path8"
       style="fill:#8f230a;fill-opacity:0.94117647"
       inkscape:connector-curvature="0" /><path
       d="m 67.722,48.263 c 0,5.811 4.728,10.538 10.538,10.538 5.81,0 10.538,-4.728 10.538,-10.538 0,-5.81 -4.728,-10.538 -10.538,-10.538 -5.811,0 -10.538,4.727 -10.538,10.538 z"
       id="path10"
       style="fill:#8f230a;fill-opacity:0.94117647"
       inkscape:connector-curvature="0" /><path
       d="m 78.26,63.467 c -3.671,0 -7.043,-1.308 -9.673,-3.483 -4.152,1.788 -7.068,5.917 -7.068,10.718 V 90.155 H 68.647 95 V 70.702 c 0,-4.8 -2.916,-8.929 -7.067,-10.717 -2.631,2.174 -6.002,3.482 -9.673,3.482 z"
       id="path12"
       style="fill:#8f230a;fill-opacity:0.94117647"
       inkscape:connector-curvature="0" /><path
       d="m 50,53.1 c 6.521,0 11.826,-5.305 11.826,-11.826 0,-6.521 -5.306,-11.825 -11.826,-11.825 -6.52,0 -11.825,5.305 -11.825,11.825 0,6.52 5.304,11.826 11.825,11.826 z"
       id="path14"
       style="fill:#8f230a;fill-opacity:0.94117647"
       inkscape:connector-curvature="0" /><path
       d="M 65.31,56.404 C 64.092,55.16 62.596,54.196 60.926,53.593 58.013,56.18 54.192,57.766 50,57.766 c -4.192,0 -8.013,-1.586 -10.926,-4.172 -1.669,0.603 -3.165,1.567 -4.383,2.811 5.036,2.785 8.456,8.148 8.456,14.298 V 90.156 H 56.854 V 70.702 c -10e-4,-6.15 3.42,-11.513 8.456,-14.298 z"
       id="path16"
       style="fill:#8f230a;fill-opacity:0.94117647"
       inkscape:connector-curvature="0" /><path
       d="m 57.807,26.754 c 4.501,2.43 7.733,6.896 8.494,12.152 2.691,-3.432 6.818,-5.674 11.472,-5.822 0.136,-0.674 0.209,-1.371 0.209,-2.085 0,-5.81 -4.728,-10.538 -10.538,-10.538 -4.299,0 -8,2.592 -9.637,6.293 z"
       id="path18"
       style="fill:#8f230a;fill-opacity:0.94117647"
       inkscape:connector-curvature="0" /><path
       d="m 33.699,38.905 c 0.75,-5.181 3.903,-9.59 8.304,-12.042 -1.72,-3.488 -5.303,-5.899 -9.448,-5.899 -5.81,0 -10.538,4.728 -10.538,10.538 0,0.537 0.053,1.061 0.131,1.577 4.687,0.126 8.844,2.375 11.551,5.826 z"
       id="path20"
       style="fill:#8f230a;fill-opacity:0.94117647"
       inkscape:connector-curvature="0" /><path
       d="m 46.374,25.198 c 1.169,-0.264 2.379,-0.415 3.626,-0.415 1.172,0 2.313,0.127 3.416,0.361 1.338,-3.194 3.735,-5.837 6.751,-7.489 C 58.96,13.165 54.866,9.845 50,9.845 c -5.025,0 -9.234,3.539 -10.281,8.253 2.923,1.569 5.267,4.071 6.655,7.1 z"
       id="path22"
       style="fill:#8f230a;fill-opacity:0.94117647"
       inkscape:connector-curvature="0" /></g></svg>

<?xml version="1.0" encoding="UTF-8" standalone="no"?>
<svg
   xmlns:dc="http://purl.org/dc/elements/1.1/"
   xmlns:cc="http://creativecommons.org/ns#"
   xmlns:rdf="http://www.w3.org/1999/02/22-rdf-syntax-ns#"
   xmlns:svg="http://www.w3.org/2000/svg"
   xmlns="http://www.w3.org/2000/svg"
   xmlns:sodipodi="http://sodipodi.sourceforge.net/DTD/sodipodi-0.dtd"
   xmlns:inkscape="http://www.inkscape.org/namespaces/inkscape"
   height="100px"
   width="100px"
   fill="#000000"
   version="1.1"
   x="0px"
   y="0px"
   viewBox="0 0 100 100"
   enable-background="new 0 0 100 100"
   xml:space="preserve"
   id="svg26"
   sodipodi:docname="users.svg"
   inkscape:version="0.92.4 (5da689c313, 2019-01-14)"><metadata
     id="metadata32"><rdf:RDF><cc:Work
         rdf:about=""><dc:format>image/svg+xml</dc:format><dc:type
           rdf:resource="http://purl.org/dc/dcmitype/StillImage" /><dc:title></dc:title></cc:Work></rdf:RDF></metadata><defs
     id="defs30" /><sodipodi:namedview
     pagecolor="#ffffff"
     bordercolor="#666666"
     borderopacity="1"
     objecttolerance="10"
     gridtolerance="10"
     guidetolerance="10"
     inkscape:pageopacity="0"
     inkscape:pageshadow="2"
     inkscape:window-width="777"
     inkscape:window-height="480"
     id="namedview28"
     showgrid="false"
     inkscape:zoom="2.36"
     inkscape:cx="50"
     inkscape:cy="50"
     inkscape:window-x="760"
     inkscape:window-y="189"
     inkscape:window-maximized="0"
     inkscape:current-layer="svg26" /><g
     display="none"
     id="g4"><rect
       x="-256.577"
       y="-133.027"
       display="inline"
       fill="#000000"
       stroke="#000000"
       stroke-width="4"
       stroke-miterlimit="10"
       width="1243.174"
       height="368.982"
       id="rect2" /></g><g
     id="g24"
     style="fill:#8f230a;fill-opacity:0.94117647"><path
       d="M21.74,58.801c5.811,0,10.538-4.728,10.538-10.538c0-5.81-4.728-10.538-10.538-10.538c-5.81,0-10.538,4.728-10.538,10.538   C11.202,54.074,15.93,58.801,21.74,58.801z"
       id="path6"
       style="fill:#8f230a;fill-opacity:0.94117647" /><path
       d="M38.481,90.155V70.702c0-4.8-2.916-8.93-7.068-10.718c-2.63,2.174-6.002,3.483-9.673,3.483s-7.042-1.308-9.672-3.483   C7.916,61.773,5,65.902,5,70.702v19.453h26.353H38.481z"
       id="path8"
       style="fill:#8f230a;fill-opacity:0.94117647" /><path
       d="M67.722,48.263c0,5.811,4.728,10.538,10.538,10.538c5.81,0,10.538-4.728,10.538-10.538c0-5.81-4.728-10.538-10.538-10.538   C72.449,37.725,67.722,42.452,67.722,48.263z"
       id="path10"
       style="fill:#8f230a;fill-opacity:0.94117647" /><path
       d="M78.26,63.467c-3.671,0-7.043-1.308-9.673-3.483c-4.152,1.788-7.068,5.917-7.068,10.718v19.453h7.128H95V70.702   c0-4.8-2.916-8.929-7.067-10.717C85.302,62.159,81.931,63.467,78.26,63.467z"
       id="path12"
       style="fill:#8f230a;fill-opacity:0.94117647" /><path
       d="M50,53.1c6.521,0,11.826-5.305,11.826-11.826S56.52,29.449,50,29.449s-11.825,5.305-11.825,11.825S43.479,53.1,50,53.1z"
       id="path14"
       style="fill:#8f230a;fill-opacity:0.94117647" /><path
       d="M65.31,56.404c-1.218-1.244-2.714-2.208-4.384-2.811C58.013,56.18,54.192,57.766,50,57.766s-8.013-1.586-10.926-4.172   c-1.669,0.603-3.165,1.567-4.383,2.811c5.036,2.785,8.456,8.148,8.456,14.298v19.453h13.707V70.702   C56.853,64.552,60.274,59.189,65.31,56.404z"
       id="path16"
       style="fill:#8f230a;fill-opacity:0.94117647" /><path
       d="M57.807,26.754c4.501,2.43,7.733,6.896,8.494,12.152c2.691-3.432,6.818-5.674,11.472-5.822   c0.136-0.674,0.209-1.371,0.209-2.085c0-5.81-4.728-10.538-10.538-10.538C63.145,20.461,59.444,23.053,57.807,26.754z"
       id="path18"
       style="fill:#8f230a;fill-opacity:0.94117647" /><path
       d="M33.699,38.905c0.75-5.181,3.903-9.59,8.304-12.042c-1.72-3.488-5.303-5.899-9.448-5.899   c-5.81,0-10.538,4.728-10.538,10.538c0,0.537,0.053,1.061,0.131,1.577C26.835,33.205,30.992,35.454,33.699,38.905z"
       id="path20"
       style="fill:#8f230a;fill-opacity:0.94117647" /><path
       d="M46.374,25.198c1.169-0.264,2.379-0.415,3.626-0.415c1.172,0,2.313,0.127,3.416,0.361c1.338-3.194,3.735-5.837,6.751-7.489   c-1.207-4.49-5.301-7.81-10.167-7.81c-5.025,0-9.234,3.539-10.281,8.253C42.642,19.667,44.986,22.169,46.374,25.198z"
       id="path22"
       style="fill:#8f230a;fill-opacity:0.94117647" /></g></svg>
